mimes/16/text-x-readme.svg

<?xml version="1.0" encoding="UTF-8" standalone="no"?>
<svg
   xmlns:dc="http://purl.org/dc/elements/1.1/"
   xmlns:cc="http://creativecommons.org/ns#"
   xmlns:rdf="http://www.w3.org/1999/02/22-rdf-syntax-ns#"
   xmlns:svg="http://www.w3.org/2000/svg"
   xmlns="http://www.w3.org/2000/svg"
   xmlns:xlink="http://www.w3.org/1999/xlink"
   version="1.1"
   width="16"
   height="16"
   id="svg3810">
  <defs
     id="defs3812">
    <linearGradient
       x1="23.99999"
       y1="5.5641499"
       x2="23.99999"
       y2="43"
       id="linearGradient3988"
       xlink:href="#linearGradient3977"
       gradientUnits="userSpaceOnUse"
       gradientTransform="matrix(0.24324324,0,0,0.35135133,2.1621636,-0.43242804)" />
    <linearGradient
       id="linearGradient3977">
      <stop
         id="stop3979"
         style="stop-color:#ffffff;stop-opacity:1"
         offset="0" />
      <stop
         id="stop3981"
         style="stop-color:#ffffff;stop-opacity:0.23529412"
         offset="0.03626217" />
      <stop
         id="stop3983"
         style="stop-color:#ffffff;stop-opacity:0.15686275"
         offset="0.95056331" />
      <stop
         id="stop3985"
         style="stop-color:#ffffff;stop-opacity:0.39215687"
         offset="1" />
    </linearGradient>
    <linearGradient
       id="linearGradient3600">
      <stop
         id="stop3602"
         style="stop-color:#f4f4f4;stop-opacity:1"
         offset="0" />
      <stop
         id="stop3604"
         style="stop-color:#dbdbdb;stop-opacity:1"
         offset="1" />
    </linearGradient>
    <linearGradient
       id="linearGradient3104">
      <stop
         id="stop3106"
         style="stop-color:#a0a0a0;stop-opacity:1"
         offset="0" />
      <stop
         id="stop3108"
         style="stop-color:#bebebe;stop-opacity:1"
         offset="1" />
    </linearGradient>
    <linearGradient
       x1="25.132275"
       y1="0.98520643"
       x2="25.132275"
       y2="47.013336"
       id="linearGradient3806"
       xlink:href="#linearGradient3600"
       gradientUnits="userSpaceOnUse"
       gradientTransform="matrix(0.31428714,0,0,0.3259265,0.457108,-0.32223804)" />
    <linearGradient
       x1="-51.786404"
       y1="50.786446"
       x2="-51.786404"
       y2="2.9062471"
       id="linearGradient3808"
       xlink:href="#linearGradient3104"
       gradientUnits="userSpaceOnUse"
       gradientTransform="matrix(0.25378586,0,0,0.30501865,19.128979,-0.68547704)" />
  </defs>
  <metadata
     id="metadata3815">
    <rdf:RDF>
      <cc:Work
         rdf:about="">
        <dc:format>image/svg+xml</dc:format>
        <dc:type
           rdf:resource="http://purl.org/dc/dcmitype/StillImage" />
        <dc:title />
      </cc:Work>
    </rdf:RDF>
  </metadata>
  <g
     id="layer1">
    <path
       d="m 2.4999621,0.49997396 c 2.5206756,0 11.0000629,9.54e-4 11.0000629,9.54e-4 l 1.3e-5,14.99909804 c 0,0 -7.3333841,0 -11.0000759,0 0,-5.000017 0,-10.000035 0,-15.00005204 z"
       id="path4160"
       style="fill:url(#linearGradient3806);fill-opacity:1;stroke:url(#linearGradient3808);stroke-width:0.99992192;stroke-linecap:butt;stroke-linejoin:round;stroke-miterlimit:4;stroke-opacity:1;stroke-dasharray:none;stroke-dashoffset:0;display:inline" />
    <path
       d="m 12.5,14.5 -9.0000001,0 0,-13 L 12.5,1.5 z"
       id="rect6741-1"
       style="fill:none;stroke:url(#linearGradient3988);stroke-width:1;stroke-linecap:round;stroke-linejoin:miter;stroke-miterlimit:4;stroke-opacity:1;stroke-dasharray:none;stroke-dashoffset:0" />
    <path
       d="M 5.5888528,7.8725539 C 5.7035865,8.1844527 5.8327279,8.4372704 6.1078116,8.091577 6.4488541,7.8886648 7.5915623,6.9992395 7.4772203,7.8704522 7.1113259,9.4825762 6.6659512,11.077747 6.3254118,12.694838 5.9693299,13.580268 6.7779231,14.381177 7.6221529,13.805377 8.5195161,13.435448 9.2916937,12.832897 10.08056,12.280147 9.9729248,12.016177 9.9011837,11.636986 9.6037759,11.982199 9.2132643,12.159447 8.3603422,12.995108 8.2018856,12.305875 8.5299124,10.560235 9.1376712,8.8792157 9.5261617,7.1474952 9.8836731,6.3512533 9.299786,5.3451735 8.4257739,6.0038346 7.3786849,6.4598756 6.5030443,7.204838 5.5888528,7.8725539 z M 9.4749362,2.001369 C 8.4065962,1.9446691 7.8480314,3.6668676 8.8632681,4.1381375 9.6869222,4.4759263 10.583733,3.6311633 10.382518,2.7870509 10.320075,2.347515 9.9254537,1.9865842 9.4749371,2.001369 l -9e-7,0 z"
       id="text3482"
       style="font-size:40px;font-style:normal;font-variant:normal;font-weight:bold;font-stretch:normal;text-align:start;line-height:100%;writing-mode:lr-tb;text-anchor:start;opacity:0.6;fill:#000000;fill-opacity:1;stroke:none;font-family:URW Palladio L;-inkscape-font-specification:URW Palladio L Bold" />
    <path
       d="M 5.5888528,8.4725544 C 5.7035865,8.7844532 5.8327279,9.0372709 6.1078116,8.6915775 6.4488541,8.4886653 7.5915623,7.5992409 7.4772203,8.4704527 7.1113259,10.082577 6.6659512,11.677748 6.3254118,13.294839 5.9693299,14.180269 6.7779231,14.981177 7.6221529,14.405378 8.5195161,14.035449 9.2916937,13.432897 10.08056,12.880148 9.9729248,12.616178 9.9011837,12.236987 9.6037759,12.5822 9.2132643,12.759448 8.3603422,13.595109 8.2018856,12.905876 8.5299124,11.160236 9.1376712,9.4792163 9.5261617,7.7474957 9.8836731,6.9512547 9.299786,5.9451741 8.4257739,6.6038351 7.3786849,7.059877 6.5030443,7.8048386 5.5888528,8.4725544 z M 9.4749362,2.6013678 C 8.4065962,2.5446765 7.8480314,4.2668664 8.8632681,4.7381363 9.6869222,5.0759242 10.583733,4.2311621 10.382518,3.3870496 10.320075,2.9475129 9.9254537,2.5865821 9.4749371,2.6013678 l -9e-7,0 z"
       id="path3536"
       style="font-size:40px;font-style:normal;font-variant:normal;font-weight:bold;font-stretch:normal;text-align:start;line-height:100%;writing-mode:lr-tb;text-anchor:start;opacity:0.4;fill:#ffffff;fill-opacity:1;stroke:none;font-family:URW Palladio L;-inkscape-font-specification:URW Palladio L Bold" />
  </g>
</svg>

<svg xmlns="http://www.w3.org/2000/svg" xmlns:xlink="http://www.w3.org/1999/xlink" viewBox="0 0 16 16"><defs><linearGradient x1="24" y1="5.564" x2="24" y2="43" id="f" xlink:href="#a" gradientUnits="userSpaceOnUse" gradientTransform="matrix(.24324 0 0 .35135 2.162 -.432)"/><linearGradient id="a"><stop offset="0" stop-color="#fff"/><stop offset=".036" stop-color="#fff" stop-opacity=".235"/><stop offset=".951" stop-color="#fff" stop-opacity=".157"/><stop offset="1" stop-color="#fff" stop-opacity=".392"/></linearGradient><linearGradient id="b"><stop offset="0" stop-color="#f4f4f4"/><stop offset="1" stop-color="#dbdbdb"/></linearGradient><linearGradient id="c"><stop offset="0" stop-color="#a0a0a0"/><stop offset="1" stop-color="#bebebe"/></linearGradient><linearGradient x1="25.132" y1=".985" x2="25.132" y2="47.013" id="d" xlink:href="#b" gradientUnits="userSpaceOnUse" gradientTransform="matrix(.3143 0 0 .32593 .457 -.322)"/><linearGradient x1="-51.786" y1="50.786" x2="-51.786" y2="2.906" id="e" xlink:href="#c" gradientUnits="userSpaceOnUse" gradientTransform="matrix(.2538 0 0 .30502 19.13 -.685)"/></defs><path d="M2.5.5h11v15h-11V.5z" fill="url(#d)" stroke="url(#e)" stroke-linejoin="round"/><path d="M12.5 14.5h-9v-13h9z" fill="none" stroke="url(#f)" stroke-linecap="round"/><path d="M5.59 7.873c.114.31.243.564.518.22.34-.204 1.484-1.094 1.37-.223-.367 1.613-.812 3.208-1.153 4.825-.356.885.453 1.686 1.297 1.11.898-.37 1.67-.972 2.46-1.525-.11-.264-.18-.643-.478-.298-.39.177-1.244 1.013-1.402.324.328-1.746.936-3.427 1.324-5.16.358-.795-.226-1.8-1.1-1.142-1.047.456-1.923 1.2-2.837 1.87zM9.474 2c-1.068-.055-1.627 1.667-.612 2.138.824.338 1.72-.507 1.52-1.35-.063-.44-.458-.8-.908-.787z" style="text-align:start;line-height:100%;-inkscape-font-specification:URW Palladio L Bold" font-size="40" font-weight="700" opacity=".6" font-family="URW Palladio L"/><path d="M5.59 8.473c.114.31.243.564.518.22.34-.204 1.484-1.094 1.37-.223-.367 1.613-.812 3.208-1.153 4.825-.356.885.453 1.686 1.297 1.11.898-.37 1.67-.972 2.46-1.525-.11-.264-.18-.643-.478-.298-.39.177-1.244 1.013-1.402.324.328-1.746.936-3.427 1.324-5.16.358-.795-.226-1.8-1.1-1.142-1.047.456-1.923 1.2-2.837 1.87zM9.474 2.6c-1.068-.055-1.627 1.667-.612 2.138.824.338 1.72-.507 1.52-1.35-.063-.44-.458-.8-.908-.787z" style="text-align:start;line-height:100%;-inkscape-font-specification:URW Palladio L Bold" font-size="40" font-weight="700" opacity=".4" fill="#fff" font-family="URW Palladio L"/></svg>
